docs/assets/images/squarespace.svg

<svg width="50" height="50" viewBox="0 0 50 50" fill="none" xmlns="http://www.w3.org/2000/svg">
<g clip-path="url(#clip0_913_28238)">
<path d="M20.8594 30.7998C20.2186 31.4406 20.2186 32.4792 20.8594 33.12C21.5002 33.7608 22.5388 33.7608 23.1796 33.12L33.6173 22.6823C34.8983 21.4013 36.9755 21.4013 38.2565 22.6823C39.5375 23.9633 39.5375 26.0404 38.2565 27.3214L28.02 37.5573C29.2996 38.8383 31.3755 38.8396 32.6564 37.5599L32.6591 37.5573L40.578 29.639C43.1407 27.0764 43.1407 22.9227 40.578 20.3607C38.0154 17.7981 33.8611 17.7981 31.2998 20.3607L20.8594 30.7998V30.7998ZM37.0977 23.8404C36.4569 23.1996 35.4183 23.1996 34.7781 23.8404L24.3391 34.2781C23.0594 35.5591 20.9836 35.5604 19.7026 34.2815L19.6993 34.2781C19.0591 33.638 18.0212 33.6373 17.3804 34.2775L17.3797 34.2781C16.7389 34.9183 16.7382 35.9569 17.3784 36.5977L17.3797 36.599C19.9416 39.1603 24.096 39.1603 26.658 36.599L37.097 26.16C37.7379 25.5192 37.7379 24.4806 37.0977 23.8404V23.8404ZM19.6999 29.6397L30.1377 19.2019C30.7778 18.5611 30.7778 17.5225 30.1377 16.8817C29.4975 16.2415 28.4596 16.2415 27.8194 16.8817L17.3797 27.3194C16.0994 28.6004 14.0222 28.6011 12.7412 27.3201L12.7405 27.3194C11.4596 26.0391 11.4582 23.9633 12.7386 22.6816L12.7405 22.6796L22.9784 12.4418C21.6981 11.1608 19.6216 11.1601 18.3399 12.4404L18.3386 12.4418L10.421 20.3607C7.85902 22.9233 7.85902 27.077 10.421 29.639C12.9843 32.2016 17.1366 32.2016 19.6999 29.6397V29.6397ZM13.9007 26.16C14.5408 26.8001 15.5787 26.8001 16.2189 26.16L26.6586 15.7216C27.9389 14.4406 30.0155 14.4399 31.2964 15.7202L31.2978 15.7216C31.9386 16.3624 32.9772 16.3624 33.6173 15.7216C34.2582 15.0808 34.2582 14.0422 33.6173 13.402C31.0547 10.8394 26.9017 10.8394 24.3391 13.402L13.9007 23.8404C13.2598 24.4806 13.2598 25.5192 13.9 26.16H13.9007V26.16Z" fill="black"/>
</g>
<defs>
<clipPath id="clip0_913_28238">
<rect width="34" height="34" fill="white" transform="translate(8.5 7.99988)"/>
</clipPath>
</defs>
</svg>

<svg xmlns="http://www.w3.org/2000/svg" fill="none" viewBox="0 0 50 50"><g clip-path="url(#a)"><path fill="#000" d="M20.86 30.8a1.64 1.64 0 1 0 2.32 2.32l10.437-10.438a3.28 3.28 0 0 1 4.64 4.64L28.02 37.556a3.278 3.278 0 0 0 4.636.003l.003-.003 7.919-7.918a6.56 6.56 0 0 0 0-9.278 6.56 6.56 0 0 0-9.278 0L20.86 30.8zm16.238-6.96a1.64 1.64 0 0 0-2.32 0L24.34 34.278a3.28 3.28 0 0 1-4.636.004l-.004-.004a1.64 1.64 0 0 0-2.32 2.32v.001a6.562 6.562 0 0 0 9.279 0L37.097 26.16c.64-.64.64-1.68 0-2.32zM19.7 29.64l10.438-10.438a1.64 1.64 0 1 0-2.318-2.32L17.38 27.319a3.28 3.28 0 0 1-4.641-4.638l.002-.001 10.237-10.238a3.28 3.28 0 0 0-4.638-.002l-.001.002-7.918 7.919A6.561 6.561 0 0 0 19.7 29.64zm-5.8-3.48c.64.64 1.679.64 2.319 0l10.44-10.438a3.28 3.28 0 0 1 4.637-.002l.002.002a1.64 1.64 0 1 0 2.32-2.32 6.56 6.56 0 0 0-9.279 0L13.901 23.84a1.64 1.64 0 0 0-.001 2.32z"/></g><defs><clipPath id="a"><path fill="#fff" d="M0 0H34V34H0z" transform="translate(8.5 8)"/></clipPath></defs></svg>
